libs/ui/packages/crypto-icons/src/svg/NANO.svg

<svg width="24" height="24" viewBox="0 0 24 24" fill="none">
<path d="M18.7125 8.25C18.069 8.25 17.5253 8.76975 17.5253 9.43725C17.5253 10.3778 17.3768 10.6245 16.3373 10.6245H16.2382C15.9473 10.649 15.6762 10.7823 15.4791 10.9977C15.282 11.2132 15.1733 11.495 15.1747 11.787V11.8125C15.1747 12.7275 15.0022 12.9503 13.9875 12.9503C13.938 12.9503 13.8885 12.9502 13.8638 12.975C13.2698 13.0492 12.8002 13.5435 12.8002 14.1375C12.8002 14.781 13.3193 15.3248 13.9875 15.3248C14.6062 15.3248 15.1253 14.8298 15.15 14.2365V14.1375C15.15 13.2968 15.4222 12.975 16.3125 12.9503H16.3373C16.956 12.9503 17.4757 12.4553 17.4998 11.8373V11.7622C17.4998 10.8967 17.772 10.575 18.6877 10.575C19.3305 10.575 19.875 10.056 19.875 9.38775C19.875 8.76975 19.3553 8.25 18.7125 8.25ZM11.736 10.6245C12.0245 10.6505 12.2938 10.7802 12.494 10.9895C12.6943 11.1988 12.8118 11.4736 12.825 11.763C12.825 12.4305 12.3053 12.9503 11.637 12.9503C10.9695 12.9503 10.4497 12.4058 10.4497 11.763C10.4497 10.9215 10.1775 10.6005 9.2625 10.6005C8.3475 10.6005 8.07525 10.9215 8.07525 11.7878V11.862C8.0505 12.4553 7.53075 12.9495 6.91275 12.9495C6.24525 12.9495 5.72475 12.4058 5.72475 11.763C5.72475 11.1443 6.195 10.6493 6.789 10.6005H6.888C7.92675 10.6005 8.07525 10.3777 8.07525 9.438C8.08618 9.13042 8.21606 8.8391 8.43751 8.62537C8.65897 8.41165 8.95473 8.29221 9.2625 8.29221C9.57027 8.29221 9.86603 8.41165 10.0875 8.62537C10.3089 8.8391 10.4388 9.13042 10.4497 9.438C10.4497 10.3777 10.5982 10.6245 11.637 10.6245H11.736ZM4.56225 15.3248C4.24737 15.3248 3.94539 15.1997 3.72274 14.977C3.50008 14.7544 3.375 14.4524 3.375 14.1375C3.375 13.8226 3.50008 13.5206 3.72274 13.298C3.94539 13.0753 4.24737 12.9503 4.56225 12.9503C4.87713 12.9503 5.17911 13.0753 5.40176 13.298C5.62442 13.5206 5.7495 13.8226 5.7495 14.1375C5.7495 14.4524 5.62442 14.7544 5.40176 14.977C5.17911 15.1997 4.87713 15.3248 4.56225 15.3248Z" fill="#4A90E2"/>
</svg>

<svg width="24" height="24" viewBox="0 0 24 24" fill="none"><path fill="#4a90e2" d="M18.713 8.25c-.644 0-1.188.52-1.188 1.187 0 .94-.148 1.188-1.188 1.188h-.099a1.16 1.16 0 0 0-1.063 1.162v.025c0 .915-.173 1.138-1.187 1.138-.05 0-.1 0-.124.025-.594.074-1.064.569-1.064 1.162 0 .644.52 1.188 1.188 1.188.618 0 1.137-.495 1.162-1.088v-.1c0-.84.272-1.162 1.162-1.187h.025c.619 0 1.139-.495 1.163-1.113v-.075c0-.865.272-1.187 1.188-1.187.643 0 1.187-.519 1.187-1.187 0-.618-.52-1.138-1.163-1.138m-6.977 2.374a1.2 1.2 0 0 1 1.089 1.139c0 .668-.52 1.187-1.188 1.187a1.19 1.19 0 0 1-1.187-1.187c0-.841-.272-1.162-1.187-1.162s-1.188.32-1.188 1.187v.074c-.024.593-.544 1.088-1.162 1.088a1.19 1.19 0 0 1-1.188-1.187c0-.619.47-1.114 1.064-1.162h.099c1.039 0 1.187-.223 1.187-1.163a1.188 1.188 0 0 1 2.375 0c0 .94.148 1.186 1.187 1.186zm-7.174 4.7a1.187 1.187 0 1 1 0-2.373 1.187 1.187 0 0 1 0 2.374"/></svg>
